Obsidian/actions/16s/edit-find-replace-symbolic.svg

<svg height="16" width="16" xmlns="http://www.w3.org/2000/svg"><path d="m5.9375 1c-1.2651705 0-2.5353948.4764293-3.5 1.4375-1.0935374 1.0895308-1.52116592 2.5770431-1.375 4 .1086549-1.0930808.5351969-2.1632739 1.375-3 1.9292103-1.9221413 5.0707895-1.9221414 7 0 .816029.8130384 1.278535 1.8469911 1.40625 2.90625.121874-1.400378-.330188-2.8341309-1.40625-3.90625-.9646053-.9610707-2.2348295-1.43750001-3.5-1.4375zm-3.25 5.4375c-.023392.1588634-.03125.3356754-.03125.5 0 1.8122134 1.4936244 3.281251 3.3125 3.28125 1.8188777 0 3.2812498-1.4690368 3.28125-3.28125 0-.1643246-.00783-.3421373-.03125-.5-.2443941 1.5722083-1.6038135 2.78125-3.25 2.78125-1.6461846.0000013-3.0368557-1.2090414-3.28125-2.78125zm7.53125 2.9375c-.04341.074692-.0773.1459265-.125.21875.01634.324513.06952.876549.28125 1.0625.288287.25319.966874-.110576 1.40625.375l3.03125 3.0625s.02196.02111.03125.03125c.362727-.631969-.03125-1.03125-.03125-1.03125l-3.03125-3.0625c-.439376-.4855763-1.117963-.12181-1.40625-.375-.066709-.0585873-.118328-.1724554-.15625-.28125zm-8.21875 3.625c-.552 0-1 .448-1 1 0 .187223.066598.350127.15625.5.1746735-.292006.4789729-.5.84375-.5s.6690765.207994.84375.5c.0896517-.149873.15625-.312777.15625-.5 0-.552-.4479999-1-1-1zm3 0c-.552 0-1 .448-1 1 0 .187223.066598.350127.15625.5.1746735-.292006.4789729-.5.84375-.5s.6690765.207994.84375.5c.0896517-.149873.15625-.312777.15625-.5 0-.552-.4479999-1-1-1zm3 0c-.552 0-1 .448-1 1 0 .187223.066598.350127.15625.5.1746735-.292006.4789729-.5.84375-.5s.6690765.207994.84375.5c.0896517-.149873.15625-.312777.15625-.5 0-.552-.4479999-1-1-1zm-2.0625-12c-1.2651705 0-2.5353948.4764293-3.5 1.4375-1.92921011 1.9221417-1.92921009 5.046609 0 6.96875 1.6818403 1.675679 4.2713406 1.902205 6.1875.65625.3257053.01628.875865.0703 1.0625.28125.2541228.287232-.112362.937235.375 1.375l3.03125 3.09375s.561748.591294 1.4375-.28125c.875752-.872543.28125-1.4375.28125-1.4375l-3.03125-3.0625c-.439376-.4855763-1.117963-.12181-1.40625-.375-.211729-.185951-.264912-.737987-.28125-1.0625 1.250537-1.909138 1.025591-4.4805721-.65625-6.15625-.9646053-.9610707-2.2348295-1.43750001-3.5-1.4375zm.03125 1.65625c1.8188771 0 3.28125 1.4690375 3.28125 3.28125-.0000002 1.8122133-1.4623723 3.28125-3.28125 3.28125-1.8188756.0000015-3.3125-1.4690366-3.3125-3.28125.0000002-.9061062.3723428-1.7495279.96875-2.34375.5964074-.5942221 1.4343116-.9374999 2.34375-.9375zm-3.96875 10.34375c-.552 0-1 .448-1 1s.4480001 1 1 1c.552 0 1.0000001-.448 1-1 0-.552-.4479999-1-1-1zm3 0c-.552 0-.9999999.448-1 1 0 .552.4480001 1 1 1 .552 0 1.0000001-.448 1-1 0-.552-.4479999-1-1-1zm3 0c-.552 0-.9999999.448-1 1 0 .552.4480001 1 1 1 .552 0 1.0000001-.448 1-1 0-.552-.4479999-1-1-1z" fill="#bebebe"/></svg>

<?xml version="1.0" encoding="UTF-8" standalone="no"?>
<!-- Created with Inkscape (http://www.inkscape.org/) -->

<svg
   xmlns:dc="http://purl.org/dc/elements/1.1/"
   xmlns:cc="http://creativecommons.org/ns#"
   xmlns:rdf="http://www.w3.org/1999/02/22-rdf-syntax-ns#"
   xmlns:svg="http://www.w3.org/2000/svg"
   xmlns="http://www.w3.org/2000/svg"
   xmlns:xlink="http://www.w3.org/1999/xlink"
   xmlns:sodipodi="http://sodipodi.sourceforge.net/DTD/sodipodi-0.dtd"
   xmlns:inkscape="http://www.inkscape.org/namespaces/inkscape"
   width="16"
   height="16"
   id="svg2"
   sodipodi:version="0.32"
   inkscape:version="0.91 r13725"
   version="1.0"
   sodipodi:docname="edit-find-replace-symbolic.svg"
   inkscape:output_extension="org.inkscape.output.svg.inkscape"
   inkscape:export-filename="/home/matt/.icons/Sirocco/scalable/mimetypes/text-plain.png"
   inkscape:export-xdpi="90"
   inkscape:export-ydpi="90"
   sodipodi:modified="true"
   style="display:inline">
  <sodipodi:namedview
     id="base"
     pagecolor="#ffffff"
     bordercolor="#666666"
     borderopacity="1.0"
     inkscape:pageopacity="0.0"
     inkscape:pageshadow="2"
     inkscape:zoom="17.631088"
     inkscape:cx="-24.137572"
     inkscape:cy="5.673406"
     inkscape:document-units="px"
     inkscape:current-layer="layer1"
     width="128px"
     height="128px"
     inkscape:showpageshadow="false"
     inkscape:window-width="1920"
     inkscape:window-height="1004"
     inkscape:window-x="0"
     inkscape:window-y="25"
     showguides="true"
     inkscape:guide-bbox="true"
     showgrid="true"
     inkscape:window-maximized="1">
    <sodipodi:guide
       id="guide2226"
       position="32.637397,117.99844"
       orientation="horizontal" />
    <sodipodi:guide
       id="guide2230"
       position="110,57.402344"
       orientation="vertical" />
    <sodipodi:guide
       id="guide2232"
       position="33.760911"
       orientation="horizontal" />
    <sodipodi:guide
       id="guide2231"
       position="46.774696"
       orientation="horizontal" />
    <inkscape:grid
       enabled="true"
       visible="true"
       id="grid3231"
       type="xygrid" />
    <sodipodi:guide
       orientation="1,0"
       position="100,67.625"
       id="guide2713" />
  </sodipodi:namedview>
  <defs
     id="defs4">
    <inkscape:perspective
       sodipodi:type="inkscape:persp3d"
       inkscape:vp_x="0 : 11 : 1"
       inkscape:vp_y="0 : 1000 : 0"
       inkscape:vp_z="22 : 11 : 1"
       inkscape:persp3d-origin="11 : 7.3333333 : 1"
       id="perspective19" />
    <linearGradient
       id="StandardGradient"
       gradientTransform="matrix(0.8222562,0,0,0.8222562,-1.5084521,-0.5995615)"
       x1="10.710332"
       y1="1.9963325"
       x2="10.710332"
       y2="18.974037"
       gradientUnits="userSpaceOnUse">
      <stop
         style="stop-color:#000000;stop-opacity:0.86274511;"
         offset="0"
         id="stop3277" />
      <stop
         style="stop-color:#000000;stop-opacity:0.47058824;"
         offset="1"
         id="stop3279" />
    </linearGradient>
    <inkscape:perspective
       id="perspective3648"
       inkscape:persp3d-origin="0.5 : 0.33333333 : 1"
       inkscape:vp_z="1 : 0.5 : 1"
       inkscape:vp_y="0 : 1000 : 0"
       inkscape:vp_x="0 : 0.5 : 1"
       sodipodi:type="inkscape:persp3d" />
    <linearGradient
       inkscape:collect="always"
       xlink:href="#StandardGradient"
       id="linearGradient3627"
       gradientUnits="userSpaceOnUse"
       gradientTransform="matrix(0.8222562,0,0,0.8222562,-21.508452,-0.5995615)"
       x1="10.710332"
       y1="1.9963325"
       x2="10.710332"
       y2="18.974037" />
    <clipPath
       clipPathUnits="userSpaceOnUse"
       id="clipPath3634">
      <path
         style="fill:#ff00ff;fill-opacity:1;stroke:none;display:inline"
         d="m -20,0 0,16 16,0 0,-16 -16,0 z m 5.9375,1 c 1.26517,-1e-8 2.535395,0.4764293 3.5,1.4375 1.681841,1.6756779 1.906787,4.247112 0.65625,6.15625 0.016338,0.324513 0.069521,0.876549 0.28125,1.0625 0.288287,0.25319 0.966874,-0.1105763 1.40625,0.375 l 3.03125,3.0625 c 0,0 0.594502,0.564957 -0.28125,1.4375 -0.875752,0.872544 -1.4375,0.28125 -1.4375,0.28125 L -9.9375,11.71875 c -0.487362,-0.437765 -0.120877,-1.087768 -0.375,-1.375 -0.186635,-0.21095 -0.736795,-0.26497 -1.0625,-0.28125 -1.916159,1.245955 -4.50566,1.019429 -6.1875,-0.65625 -1.92921,-1.922141 -1.92921,-5.0466083 0,-6.96875 C -16.597895,1.4764293 -15.327671,1 -14.0625,1 z m 0.03125,1.65625 c -0.909438,10e-8 -1.747343,0.3432779 -2.34375,0.9375 -0.596407,0.5942221 -0.96875,1.4376438 -0.96875,2.34375 0,1.8122134 1.493624,3.2812515 3.3125,3.28125 1.818878,0 3.28125,-1.4690367 3.28125,-3.28125 0,-1.8122125 -1.462373,-3.28125 -3.28125,-3.28125 z M -18,13 c 0.552,0 1,0.448 1,1 0,0.552 -0.448,1 -1,1 -0.552,0 -1,-0.448 -1,-1 0,-0.552 0.448,-1 1,-1 z m 3,0 c 0.552,0 1,0.448 1,1 0,0.552 -0.448,1 -1,1 -0.552,0 -1,-0.448 -1,-1 0,-0.552 0.448,-1 1,-1 z m 3,0 c 0.552,0 1,0.448 1,1 0,0.552 -0.448,1 -1,1 -0.552,0 -1,-0.448 -1,-1 0,-0.552 0.448,-1 1,-1 z"
         id="path3636" />
    </clipPath>
    <linearGradient
       inkscape:collect="always"
       xlink:href="#StandardGradient"
       id="linearGradient4449"
       gradientUnits="userSpaceOnUse"
       gradientTransform="matrix(0.8222562,0,0,0.8222562,-1.5084521,-0.5995615)"
       x1="10.710332"
       y1="1.9963325"
       x2="10.710332"
       y2="18.974037" />
    <linearGradient
       inkscape:collect="always"
       xlink:href="#StandardGradient"
       id="linearGradient4453"
       gradientUnits="userSpaceOnUse"
       gradientTransform="matrix(0.8222562,0,0,0.8222562,-1.5084521,-0.5995615)"
       x1="10.710332"
       y1="1.9963325"
       x2="10.710332"
       y2="18.974037" />
  </defs>
  <metadata
     id="metadata7">
    <rdf:RDF>
      <cc:Work
         rdf:about="">
        <dc:format>image/svg+xml</dc:format>
        <dc:type
           rdf:resource="http://purl.org/dc/dcmitype/StillImage" />
      </cc:Work>
    </rdf:RDF>
  </metadata>
  <g
     style="display:inline"
     inkscape:label="Calque 1"
     id="layer1"
     inkscape:groupmode="layer">
    <path
       id="BevelShadow"
       style="opacity:1;fill:#bebebe;fill-opacity:1;stroke:none;stroke-width:1;stroke-linecap:butt;stroke-linejoin:round;stroke-miterlimit:4;stroke-dasharray:none;stroke-dashoffset:0;stroke-opacity:1"
       d="m 5.9375,1 c -1.2651705,0 -2.5353948,0.4764293 -3.5,1.4375 -1.0935374,1.0895308 -1.52116592,2.5770431 -1.375,4 0.1086549,-1.0930808 0.5351969,-2.1632739 1.375,-3 1.9292103,-1.9221413 5.0707895,-1.9221414 7,0 0.816029,0.8130384 1.278535,1.8469911 1.40625,2.90625 C 10.965624,4.943372 10.513562,3.5096191 9.4375,2.4375 8.4728947,1.4764293 7.2026705,0.99999999 5.9375,1 Z m -3.25,5.4375 c -0.023392,0.1588634 -0.03125,0.3356754 -0.03125,0.5 0,1.8122134 1.4936244,3.281251 3.3125,3.28125 1.8188777,0 3.2812498,-1.4690368 3.28125,-3.28125 0,-0.1643246 -0.00783,-0.3421373 -0.03125,-0.5 C 8.9743559,8.0097083 7.6149365,9.21875 5.96875,9.21875 4.3225654,9.2187513 2.9318943,8.0097086 2.6875,6.4375 Z m 7.53125,2.9375 c -0.04341,0.074692 -0.0773,0.1459265 -0.125,0.21875 0.01634,0.324513 0.06952,0.876549 0.28125,1.0625 0.288287,0.25319 0.966874,-0.110576 1.40625,0.375 l 3.03125,3.0625 c 0,0 0.02196,0.02111 0.03125,0.03125 0.362727,-0.631969 -0.03125,-1.03125 -0.03125,-1.03125 l -3.03125,-3.0625 C 11.341874,9.5456737 10.663287,9.90944 10.375,9.65625 10.308291,9.5976627 10.256672,9.4837946 10.21875,9.375 Z M 2,13 c -0.552,0 -1,0.448 -1,1 0,0.187223 0.066598,0.350127 0.15625,0.5 C 1.3309235,14.207994 1.6352229,14 2,14 2.3647771,14 2.6690765,14.207994 2.84375,14.5 2.9334017,14.350127 3,14.187223 3,14 3,13.448 2.5520001,13 2,13 Z m 3,0 c -0.552,0 -1,0.448 -1,1 0,0.187223 0.066598,0.350127 0.15625,0.5 C 4.3309235,14.207994 4.6352229,14 5,14 5.3647771,14 5.6690765,14.207994 5.84375,14.5 5.9334017,14.350127 6,14.187223 6,14 6,13.448 5.5520001,13 5,13 Z m 3,0 c -0.552,0 -1,0.448 -1,1 0,0.187223 0.066598,0.350127 0.15625,0.5 C 7.3309235,14.207994 7.6352229,14 8,14 8.3647771,14 8.6690765,14.207994 8.84375,14.5 8.9334017,14.350127 9,14.187223 9,14 9,13.448 8.5520001,13 8,13 Z M 5.9375,1 c -1.2651705,0 -2.5353948,0.4764293 -3.5,1.4375 -1.92921011,1.9221417 -1.92921009,5.046609 0,6.96875 1.6818403,1.675679 4.2713406,1.902205 6.1875,0.65625 0.3257053,0.01628 0.875865,0.0703 1.0625,0.28125 0.2541228,0.287232 -0.112362,0.937235 0.375,1.375 l 3.03125,3.09375 c 0,0 0.561748,0.591294 1.4375,-0.28125 0.875752,-0.872543 0.28125,-1.4375 0.28125,-1.4375 l -3.03125,-3.0625 C 11.341874,9.5456737 10.663287,9.90944 10.375,9.65625 10.163271,9.470299 10.110088,8.918263 10.09375,8.59375 11.344287,6.684612 11.119341,4.1131779 9.4375,2.4375 8.4728947,1.4764293 7.2026705,0.99999999 5.9375,1 Z M 5.96875,2.65625 C 7.7876271,2.65625 9.25,4.1252875 9.25,5.9375 9.2499998,7.7497133 7.7876277,9.21875 5.96875,9.21875 4.1498744,9.2187515 2.65625,7.7497134 2.65625,5.9375 2.6562502,5.0313938 3.0285928,4.1879721 3.625,3.59375 4.2214074,2.9995279 5.0593116,2.6562501 5.96875,2.65625 Z M 2,13 c -0.552,0 -1,0.448 -1,1 0,0.552 0.4480001,1 1,1 0.552,0 1.0000001,-0.448 1,-1 0,-0.552 -0.4479999,-1 -1,-1 z m 3,0 c -0.552,0 -0.9999999,0.448 -1,1 0,0.552 0.4480001,1 1,1 0.552,0 1.0000001,-0.448 1,-1 0,-0.552 -0.4479999,-1 -1,-1 z m 3,0 c -0.552,0 -0.9999999,0.448 -1,1 0,0.552 0.4480001,1 1,1 0.552,0 1.0000001,-0.448 1,-1 0,-0.552 -0.4479999,-1 -1,-1 z" />
  </g>
</svg>
